icons/svg/table-large.svg

﻿<?xml version="1.0" encoding="utf-8"?>
<!DOCTYPE svg PUBLIC "-//W3C//DTD SVG 1.1//EN" "http://www.w3.org/Graphics/SVG/1.1/DTD/svg11.dtd">
<svg xmlns="http://www.w3.org/2000/svg" xmlns:xlink="http://www.w3.org/1999/xlink" version="1.1" baseProfile="full" width="24" height="24" viewBox="0 0 24.00 24.00" enable-background="new 0 0 24.00 24.00" xml:space="preserve">
	<path fill="#000000" fill-opacity="1" stroke-width="0.2" stroke-linejoin="round" d="M 4.00002,3L 20,3C 21.1046,3 22,3.89543 22,5L 22,20C 22,21.1046 21.1046,22 20,22L 4.00001,22C 2.89544,22 2.00001,21.1046 2.00001,20L 2.00002,5C 2.00002,3.89543 2.89545,3 4.00002,3 Z M 4.00002,7L 4.00001,10L 8,10L 8,7.00001L 4.00002,7 Z M 10,7.00001L 9.99999,10L 14,10L 14,7.00001L 10,7.00001 Z M 20,10L 20,7L 16,7.00001L 16,10L 20,10 Z M 4.00002,12L 4.00002,15L 8,15L 8,12L 4.00002,12 Z M 4.00001,20L 8,20L 8,17L 4.00002,17L 4.00001,20 Z M 9.99999,12L 9.99999,15L 14,15L 14,12L 9.99999,12 Z M 9.99999,20L 14,20L 14,17L 9.99999,17L 9.99999,20 Z M 20,20L 20,17L 16,17L 16,20L 20,20 Z M 20,12L 16,12L 16,15L 20,15L 20,12 Z "/>
</svg>

<svg xmlns="http://www.w3.org/2000/svg" version="1.1" baseProfile="full" width="24" height="24" viewBox="0 0 24.00 24.00" xml:space="preserve"><path fill="#000" fill-opacity="1" stroke-width=".2" stroke-linejoin="round" d="M4 3h16c1.105 0 2 .895 2 2v15c0 1.105-.895 2-2 2H4c-1.105 0-2-.895-2-2V5c0-1.105.895-2 2-2zm0 4v3h4V7H4zm6 0v3h4V7h-4zm10 3V7h-4v3h4zM4 12v3h4v-3H4zm0 8h4v-3H4v3zm6-8v3h4v-3h-4zm0 8h4v-3h-4v3zm10 0v-3h-4v3h4zm0-8h-4v3h4v-3z"/></svg>
